X:1
T:The First Noel
C: traditional English carol
M:3/4
L:1/4
Q:1/4=88
%%staves [(1 2) (3 4)]
K:D
V:1 clef=treble
F/E/ | (D>E) F/G/ | A2 B/c/ | (d c) B | A2 (B/ c/) | (d c) B | (A B) c |
w: The* first_ No-*el, the* an-gel did say, Was to cer-tain poor shep-herds in
w: They* look-*ed* up and* saw* a star Shin-ing in_ the east,* be-
w: And* by_ the* light of* that* same star Three* wise* men came* from
w: This* star_ drew* nigh to* the* north-west, O'-er Beth-*le-hem* it
w: Then* let* us* all with* one* ac-cord Sing* prais-*es to* our
V:2 clef=treble
D | A,2 D | E2 E | A2 G | F2 (D/E/) | (A F) G | (A D) G |
V:3 clef=bass
%%MIDI transpose -12
a/g/ | f2 d' | c'2 b | a2 b/c'/ | d'2 (b/ a/) | a2 c' | (d' b) g |
V:4 clef=bass
%%MIDI transpose -12
d | d2 B | (A a) g | f2 g | d2 g | (f d) e | (f g) e |
V:1
(d A) G | F2 F/E/ | (D>E) (F/ G/) | A2 B/c/ | (d c) B | A2 (B/ c/) |
w: fields as they lay; In* fields* where* they lay* keep-ing their sheep, On a
w: yond* them far, And* to* the* earth it* gave* great light, And*
w: coun-* try far; To* seek* for a king was* their* in-tent, And to
w: took* its rest, And* there* it* did both* stop* and stay, Right*
w: heav'n-* ly Lord, That* hath* made* heav'n and* earth* of naught, And*
V:2
F2 E | D2 C | A,2 D | E2 E | A2 G | F2 (D/ E/) |
V:3
(a d') a | a2 a/g/ | f2 d' | (d' c') b | a2 b/c'/ | d'2 (b/ a/) |
V:4
(f/g/ a) c | d2 A | d2 B | (A a) g | f2 g | d2 g |
V:1
(d c) B | (A B) c | (d A) G | F2 || F/E/ | (D>E) F/G/ | A2 d/c/ |
w: cold win-ter's night* that was* so deep. No-* el,* No-* el, No-*
w: so it con-tin-ued both day* and night.
w: fol-low the star* wher-ev-er it went.
w: o-ver the place* where Je-* sus lay.
w: with * His blood* man-kind* hath bought.
V:2
(A F) G | (A G) G | F2 E | D2 || C | B,2 D | C2 F |
V:3
a2 c' | d'2 e' | (a d') a | a2 || a/g/ | f2 b | a2 a |
V:4
(f d) e | (f g) e | (f/g/ a) c | d2 || A | d2 B | f2 d |
V:1
B2 B | A3 | d c B | (A B) c | (d A) G | F2 |]
w:
w:
w: el, No-el, Born is the King* of Is-*ra-el.
V:2
G2 G | (F2 A) | F F G | F2 G | F2 E | D2 |]
V:3
(b>c') d'/e'/ | (f'2 e') | d' d' d' |d'2 g | a2 a | a2 |]
V:4
(g>a) b/c'/ | (d'2 c') | b a g | (d' d) e | (f/g/ a) A | d2 |]
W:2
W:They looked up and saw a star Shining in the east, be-
W:yond them far, And to the earth it gave great light, And
W:so it continued both day and night.
W:3
W:And by the light of that same star Three wise men came from
W:country far; To seek for a king was their intent, And to
W:follow the star wherever it went.
W:4
W:This star drew nigh to the northwest, O'er Bethlehem it
W:took its rest, And there it did both stop and stay, Right
W:over the place where Jesus lay.
W:5
W:Then let us all with one accord Sing praises to our
W:heav'nly Lord, That hath made heav'n and earth of naught, And
W:with His blood mankind hath bought.

